X: 21022
Q: "Slow."
M: C
L: 1/16
K: G
V: 1 staves=2
g2 |\
g4 f2e2 d4 e2(fg) |\
g4 f2e2 d4 e2(fg) |\
(dc) |\
f3d e3^c Hd2(^d2e2f2) |\
g3f (agf).e d4 (dce.c) |\
V: 2
(G2^G2) A2(FD) (Gg)fe (dc)BA |\
z(GBe) d2c2 (cB)(BA) (Gc/B/) AB |
(GD)(GD) (AD)(FD) (Gd/c/) Bd G2 |]\
z2 |\
d)(AB)(F G)EAA HD2z2 z4 |
zB(e^d) (fe=d).c (B^A)B.^G (B=Ac).A |\


